icon/pk/volume-notice.svg

<svg viewBox="0 0 48 48" fill="none" xmlns="http://www.w3.org/2000/svg" height="1em" width="1em">
  <path d="M24 6V42C17 42 11.7985 32.8391 11.7985 32.8391H6C4.89543 32.8391 4 31.9437 4 30.8391V17.0108C4 15.9062 4.89543 15.0108 6 15.0108H11.7985C11.7985 15.0108 17 6 24 6Z" fill="#2F88FF" stroke="black" stroke-width="4" stroke-linejoin="round"/>
  <path d="M32 15L32 15C32.6232 15.5565 33.1881 16.1797 33.6841 16.8588C35.1387 18.8504 36 21.3223 36 24C36 26.6545 35.1535 29.1067 33.7218 31.0893C33.2168 31.7885 32.6391 32.4293 32 33" stroke="black" stroke-width="4" stroke-linecap="round" stroke-linejoin="round"/>
  <path d="M34.2359 41.1857C40.0836 37.6953 44 31.305 44 24C44 16.8085 40.2043 10.5035 34.507 6.97906" stroke="black" stroke-width="4" stroke-linecap="round"/>
</svg>

<svg width="48" height="48" fill="none" xmlns="http://www.w3.org/2000/svg"><path d="M24 6v36c-7 0-12.201-9.16-12.201-9.16H6a2 2 0 0 1-2-2V17.01a2 2 0 0 1 2-2h5.799S17 6 24 6Z" fill="#2F88FF" stroke="#000" stroke-width="4" stroke-linejoin="round"/><path d="M32 15h0a11.91 11.91 0 0 1 1.684 1.859A12.07 12.07 0 0 1 36 24c0 2.654-.846 5.107-2.278 7.09-.505.698-1.083 1.34-1.722 1.91" stroke="#000" stroke-width="4" stroke-linecap="round" stroke-linejoin="round"/><path d="M34.236 41.186C40.084 37.696 44 31.305 44 24c0-7.192-3.796-13.496-9.493-17.02" stroke="#000" stroke-width="4" stroke-linecap="round"/></svg>
